!!!OTL: GROSSE THATEN EDLER SEELEN
!!!ARE: Europa, Mitteleuropa, Deutschland
!!!SCT: B0133
!!!YEM: Copyright 1995, estate of Helmut Schaffrath.
**kern
*ICvox
*Ivox
*M2/4
*k[]
*C:
{8.G
16G
=1
8c
8c
8G
8G
=2
8E
8C
8r}
{16B
16c
=3
8d
8e
8d
8e
=4
8.d
16e
8d}
{16c
16c
=5
8.B
16c
8d
8F#
=6
4G
8r}
{16G
16G
=7
8.f
16d
8.e
16c
=8
16d
16B
8G
8r}
{16G
16G
=9
8.f
16d
8.e
16c
=10
16d
16B
8G
8r}
{16G
16F
=11
8E
8G
8c
8e
=12
8.g
16e
8c}
{16c
16c
=13
8d
16f
16e
8c
8B
=14
4c}
==
!!!AGN: Ballade, Romanze
!!!ONB: ESAC (Essen Associative Code) Database: BOEHME
!!!AMT: simple duple
!!!AIN: vox
!!!EED: Helmut Schaffrath
!!!EEV: 1.0
*-
